X:1
T:Young Companions
M:3/4
L:1/4
K:D
 A| A2 A| A2 F| E D2-| D2 d| d2 d| B- c d| A3-| A2 d| d2- A| B- A F|\
 B A2-| A2 F| E c2| c2 B| A3-| A2 A/2B/2| A2 A| A2 F| E D2-| D2 d|\
 d2 d| B c d| A3-| A2 d/2d/2| d2 A| B- A F| B A2-| A2 A| A2 E| G2 F|\
 D3-| D2||

